X:1
T:[ID 1-139b]
T:[ID 1-139b]
T:Bezeichnung standardisiert: Menuett Menuet In dieser Quelle auch als: Menuetto
T:Urheber unbekannt Erstbeleg: vor 1767 (Datum in der schriftlichen Quelle) Datum in der hier transkribierten schriftlichen Quelle: 1799
C:Urheber unbekannt
C:Erstbeleg: vor 1767 (Datum in der schriftlichen Quelle)
C:Datum in der hier transkribierten schriftlichen Quelle: 1799
%%score 1 2
L:1/8
M:3/4
K:D
V:1 treble nm="Primo"
V:2 treble nm="Secondo"
V:1
 D4 (3FED | d2 A2 F2 | d2 fdge | a6 | g2 bgeg | f2 afdB | A2 G2 F2 |{F} E6 :: A4 (3cBA | a2 e2 c2 | %10
 Aa g2 f2 |{f} e6 | d2 fdfa | d'a a4 | egfgac |{c} d6 :| %16
V:2
 !fermata!D4 (3FED | F2 D2 F2 | F2 dFec | f6 | e2 gece | d2 fdBG | F2 E2 D2 |{D} C6 :: A4 (3cBA | %9
 c2 G2 E2 | Cf e2 d2 | c4 z2 | F2 dFdf | ff f4 | cedeGE | F6 :| %16

